X:1
T:My Name in Mother’s Prayer
T:My Name in Mother’s Prayer
T:E. M. Herndon, arranged by Peter Philip Bilhorn
T:Peter Philip Bilhorn, 1896
T:Public Domain Courtesy of the Cyber Hymnal™
T:Public Domain Courtesy of the Cyber Hymnal™
C:E. M. Herndon, arranged by Peter Philip Bilhorn
Z:Public Domain
Z:Courtesy of the Cyber Hymnal™
%%score ( 1 2 ) ( 3 4 )
L:1/8
Q:1/4=105
M:3/4
K:Eb
V:1 treble 
V:2 treble 
V:3 bass 
V:4 bass 
V:1
 E2 | [EG]>[EG] [EG]3 [EB] | [Ec][EB] [EB]3 [EB] | [DB]3 [DF] [EG][FA] | [EG]4 E2 | %5
w: 1.~’Twas|in the days of|care- less youth, when|life was fair and|bright, And|
w: 2.~I|thought but lit- tle|of it then, tho’|rev- erence touched my|heart, To|
w: 3.~I|wan- dered on, and|heed- ed not, God’s|oft re- peat- ed|call To|
w: 4.~That|plead- ing heart, that|soul so tried, has|gone in- to her|rest, But|
 [EG]>[EG] [EG]3 [EB] | [Ec]>[EB] [EB]3 [EG] | [DF]3 [DF] [EG][EF] | [DF]3 [DF] [DF][EG] | %9
w: ne’er a tear, and|scarce a fear o’er|cast my day and|night, As, in the|
w: her whose love sought|from a- bove for|me the bet- ter|part; But when life’s|
w: turn from sin, to|live for Him, and|trust to Him my|all; But when at|
w: still with me for|aye shall be the|mem- ory of her|trust. And when I|
 [FA]3 [GB] [EG][FA] | [DF]4 [DA]2 | [EG]3 [EG] [DF][CE] | [=B,D]3 [B,D] [CE][DF] | %13
w: qui- et ev- en-|tide, I|passed her kneel- ing|there, That just one|
w: stern- er bat- tles|came with|many a sub- tle|snare, Oft that one|
w: last, con- vinced of|sin, I|sank in deep des-|pair, My hope a-|
w: cross the Jor- dan’s|tide, and|meet her o- ver|there, We’ll praise the|
 [EG]3 [FA] [GB]E | !fermata![Ee]4 E2 |"^riten." [EG]3 [EB] [DA]<[DF] | E4 |] %17
w: word, my name, I|heard my|name in mo- ther’s|prayer.|
w: word, in thought I|heard my|name in mo- ther’s|prayer.|
w: woke, when mem- ory|spoke my|name in mo- ther’s|prayer.|
w: Lord, Who blessed that|word, my|name in mo- ther’s|prayer.|
V:2
 E2 | x6 | x6 | x6 | x4 E2 | x6 | x6 | x6 | x6 | x6 | x6 | x6 | x6 | x5 E | x4 E2 | x6 | E4 |] %17
V:3
 [E,G,]2 | [E,B,]>[E,B,] [E,B,]3 [E,G,] | [E,A,][E,G,] [E,G,]3 [E,G,] | %3
 [B,,F,]3 [B,,B,] [B,,B,][B,,B,] | [E,B,]4 [E,G,]2 | [E,B,]>[E,B,] [E,B,]3 [E,G,] | %6
 [E,A,]>[E,G,] [E,G,]3 [E,B,] | [F,B,]3 [F,B,] [F,=A,][F,A,] | [B,,B,]3 [B,,B,] [B,,B,][B,,B,] | %9
 [B,,B,]3 [B,,B,] [B,,B,][B,,B,] | [B,,B,]4 [B,,F,]2 | [C,E,]3 [C,G,] [C,G,][C,G,] | %12
 [G,,G,]3 [G,,G,] [C,G,][B,,B,] | [E,B,]3 [E,B,] [E,B,][E,G,] | !fermata![C,G,]4 =A,2 | %15
 [B,,B,]3 [B,,G,] [B,,F,]<[B,,A,] | [E,G,]4 |] %17
V:4
 x2 | x6 | x6 | x6 | x6 | x6 | x6 | x6 | x6 | x6 | x6 | x6 | x6 | x6 | x4 (C,_C,) | x6 | x4 |] %17

